X:1
T:Title
%%score { ( 1 3 ) | ( 2 4 ) }
L:1/8
M:4/4
K:Bb
V:1 treble nm="Grand Piano"
V:3 treble 
V:2 bass 
V:4 bass 
V:1
 z4 z2[Q:1/4=100] [B,D]>[CE] | [DF]2 [Fd]2 [Fd]>[Ge] [Fd]>[Ec] | [DB]2 [G,EG]2 [B,DF]2 F>B | %3
[M:3/4] z/ A3/2- A4 |[M:1/4] G>A |[M:4/4] z/ F3/2- F4[K:bass] z2 | %6
 [DF]2 [Fd]2 [Fd]>[Ge] [Fd]>[Ec] |[M:3/4] [DB]2 [G,EG]2 [B,DF]2 |[M:1/4] [DFB]>[DFB] | %9
[M:4/4] [FA]>[FA] [Fc]>[Fd] [FA]2 [=EG]2 |[M:3/4] F6 |[M:1/4] F>G |[M:4/4] A2 e2 [Ae]2 [Fd]>[Ec] | %13
 [DB]2 [Fd]2 [Fd]2 [DF]>[DF] | [C=E]2 [Ed]2 [Ec]>[EG] [EA]>[EB] | [Ec]6 [B,D]>[CE] | %16
 [DF]2 [Fd]2 [Fd]>[Ge] [Fd]>[Ec] | [DB]2 [EG]2 [DF]2 [FB]>[FB] | A>A e>e d2 c2 |[M:3/4] [DB]6 |] %20
V:2
 z4 z2 [B,,F,]>[B,,F,] | [B,,B,]2 [B,,B,]2 [B,,B,]>[B,,B,] [B,,B,]>[B,,B,] | %2
 [B,,F,]2 B,,2 B,,2 D>D |[M:3/4] z/ E3/2- E4 |[M:1/4][K:treble] E>F | %5
[M:4/4] z/[K:bass] D3/2- D4 z2 | [B,,B,]2 [B,,B,]2 [B,,B,]>[B,,B,] [B,,B,]>[B,,B,] | %7
[M:3/4] [B,,F,]2 B,,2 B,,2 |[M:1/4] B,,>B,, |[M:4/4] [C,C]>[C,C] [C,A,]>[C,B,] [C,C]2 [C,B,]2 | %10
[M:3/4] [F,A,]6 |[M:1/4] [F,A,]>[F,B,=E] |[M:4/4] [F,CE]2 [F,A,F]2 [F,C]2 [F,A,]>[F,A,] | %13
 [B,,B,]2 [B,,B,]2 [B,,B,]2 [B,,B,]>[B,,B,] | [C,B,]2 [C,B,]2 [C,B,]>[C,C] [C,C]>[C,G,] | %15
 [F,A,]6 [B,,F,]>[B,,F,] | [B,,B,]2 [B,,B,]2 [B,,B,]>[B,,B,] [B,,B,]>[B,,B,] | %17
 [B,,F,B,]2 [B,,G,B,]2 [B,,B,]2 [D,B,]>[D,B,] | [F,CF]>[F,CF] [F,CF]>[F,CF] [F,A,F]2 [F,E]2 | %19
[M:3/4] [B,,F,]6 |] %20
V:3
 x8 | x8 | x8 |[M:3/4] .B2 C>C C<C |[M:1/4] x2 |[M:4/4] .G2 B,>[K:bass]B, B,<B, D>[CE] | x8 | %7
[M:3/4] x6 |[M:1/4] x2 |[M:4/4] x8 |[M:3/4] x6 |[M:1/4] x2 |[M:4/4] x8 | x8 | x8 | x8 | x8 | x8 | %18
 x8 |[M:3/4] x6 |] %20
V:4
 x8 | x8 | x8 |[M:3/4] .E2 F,>F, F,<F, |[M:1/4][K:treble] x2 | %5
[M:4/4] .E2[K:bass] B,,>B,, B,,<B,, [B,,F,B,]>[B,,F,] | x8 |[M:3/4] x6 |[M:1/4] x2 |[M:4/4] x8 | %10
[M:3/4] x6 |[M:1/4] x2 |[M:4/4] x8 | x8 | x8 | x8 | x8 | x8 | x8 |[M:3/4] x6 |] %20

